X:135
T: Robin (The)
S: "Music of Ireland - The Big Session" (DJ Taylor)
Z: B.Black
L: 1/8
M: 4/4
R: reel
K: Edor
EBGB E2 EG|(3FED AF DEFD|EBGB E2 EG|(3FED AF GE E2|
EBGB E2 EG|(3FED FA DFAF|EB, B,2 EFGE|FAGF GE E2 :|
ef (3gfe bgfg|Bgfg afdf|ef (3gfe bgfe|fagf ge e2|
ef (3gfe bg g2|Bgfg afdf|bgaf gfed|(3Bcd AF GE E2 :|
